public/favicon.svg

<svg width="256" height="256" viewBox="0 0 256 256" fill="none" xmlns="http://www.w3.org/2000/svg">
<rect width="256" height="256" rx="64" fill="#5D5A88"/>
<path d="M29.3868 155.168C22.0908 155.168 16.7148 153.163 13.2588 149.152C9.84542 145.099 8.13875 139.808 8.13875 133.28C8.13875 126.88 9.84542 121.675 13.2588 117.664C16.7148 113.653 22.0908 111.648 29.3868 111.648C34.2934 111.648 38.3894 112.608 41.6748 114.528C45.0028 116.448 47.4561 119.051 49.0348 122.336C50.6134 125.579 51.4028 129.227 51.4028 133.28C51.4028 139.851 49.5681 145.141 45.8988 149.152C42.2721 153.163 36.7681 155.168 29.3868 155.168ZM29.6428 142.112C32.4161 142.112 34.4854 141.323 35.8508 139.744C37.2161 138.123 37.8988 135.989 37.8988 133.344C37.8988 130.827 37.2161 128.757 35.8508 127.136C34.4854 125.515 32.4161 124.704 29.6428 124.704C26.8694 124.704 24.8428 125.515 23.5628 127.136C22.2828 128.715 21.6428 130.784 21.6428 133.344C21.6428 135.989 22.2828 138.123 23.5628 139.744C24.8428 141.323 26.8694 142.112 29.6428 142.112ZM71.1998 95.84C71.1998 99.2533 71.0931 105.824 70.8798 115.552C70.7944 117.088 70.7518 118.219 70.7518 118.944C69.8984 126.155 69.3651 132.448 69.1518 137.824H57.3118C57.0984 132.448 56.5651 126.155 55.7118 118.944L55.6478 115.552C55.3918 107.701 55.2638 101.131 55.2638 95.84H71.1998ZM70.6238 157.28H55.7758V143.584H70.6238V157.28ZM103.814 156.384C94.1711 156.384 87.0671 153.931 82.5017 149.024C77.9364 144.075 75.6538 137.056 75.6538 127.968C75.6538 118.795 77.9364 111.541 82.5017 106.208C87.0671 100.875 94.1711 98.208 103.814 98.208C117.296 98.208 126.32 103.776 130.886 114.912C127.046 116.491 122.544 118.859 117.382 122.016C116.144 119.157 114.182 117.045 111.494 115.68C108.848 114.272 106.139 113.568 103.366 113.568C99.2698 113.568 96.2191 114.869 94.2138 117.472C92.2084 120.032 91.2058 123.211 91.2058 127.008C91.2058 131.104 92.2724 134.453 94.4058 137.056C96.5818 139.616 99.8884 140.896 104.326 140.896C107.867 140.896 110.683 140.192 112.774 138.784C114.864 137.376 116.4 135.136 117.382 132.064C120.88 134.325 125.36 136.864 130.822 139.68C128.688 145.867 125.126 150.197 120.134 152.672C115.142 155.147 109.702 156.384 103.814 156.384ZM173.533 127.776C183.261 127.776 188.125 131.488 188.125 138.912C188.125 142.411 187.463 145.376 186.141 147.808C184.818 150.24 182.45 152.139 179.037 153.504C175.623 154.869 170.887 155.552 164.829 155.552H136.029C136.37 145.611 136.541 136.309 136.541 127.648C136.541 118.987 136.37 109.685 136.029 99.744H151.069V99.872H164.701C169.991 99.872 174.151 100.405 177.181 101.472C180.253 102.496 182.407 104.011 183.645 106.016C184.925 107.979 185.565 110.496 185.565 113.568C185.565 116.725 184.647 119.52 182.813 121.952C181.021 124.384 177.927 126.325 173.533 127.776ZM151.069 113.824V120.992H163.357C166.002 120.992 167.837 120.715 168.861 120.16C169.927 119.563 170.461 118.517 170.461 117.024C170.461 115.872 169.906 115.061 168.797 114.592C167.73 114.08 165.917 113.824 163.357 113.824H151.069ZM163.357 141.472C165.575 141.472 167.261 141.365 168.413 141.152C169.607 140.896 170.461 140.491 170.973 139.936C171.485 139.339 171.741 138.528 171.741 137.504C171.741 136.139 171.122 135.179 169.885 134.624C168.69 134.027 166.514 133.728 163.357 133.728H151.069V141.472H163.357ZM193.216 148.96C194.667 146.357 195.862 143.947 196.8 141.728C197.782 139.467 198.72 136.843 199.616 133.856C202.646 135.947 206.166 137.589 210.176 138.784C214.187 139.936 217.92 140.512 221.376 140.512C224.918 140.512 227.414 140.149 228.864 139.424C230.315 138.699 231.04 137.888 231.04 136.992C231.04 133.877 227.072 132.32 219.136 132.32C210.432 132.32 204.118 131.232 200.192 129.056C196.267 126.88 194.304 123.36 194.304 118.496C194.304 111.584 196.694 106.485 201.472 103.2C206.251 99.9147 212.459 98.272 220.096 98.272C224.534 98.272 229.078 98.9547 233.728 100.32C238.422 101.685 242.646 103.541 246.4 105.888C245.163 109.259 243.862 113.376 242.496 118.24C242.24 119.264 242.027 120.032 241.856 120.544C239.68 118.453 236.395 116.704 232 115.296C227.606 113.888 223.723 113.184 220.352 113.184C216.299 113.184 213.568 113.504 212.16 114.144C210.752 114.784 210.048 115.723 210.048 116.96C210.048 118.197 211.008 119.2 212.928 119.968C214.891 120.693 217.707 121.056 221.376 121.056C230.422 121.056 236.992 122.293 241.088 124.768C245.184 127.243 247.232 131.04 247.232 136.16C247.232 143.328 245.056 148.491 240.704 151.648C236.352 154.805 229.76 156.384 220.928 156.384C216.192 156.384 211.371 155.765 206.464 154.528C201.558 153.248 197.142 151.392 193.216 148.96Z" fill="#FBE4AE"/>
</svg>

<svg xmlns="http://www.w3.org/2000/svg" width="256" height="256" fill="none"><rect width="256" height="256" fill="#5D5A88" rx="64"/><path fill="#FBE4AE" d="M29.4 155.2c-7.3 0-12.7-2-16.1-6-3.5-4.1-5.2-9.4-5.2-16 0-6.3 1.7-11.5 5.2-15.5 3.4-4 8.8-6 16-6 5 0 9 1 12.4 2.8 3.3 2 5.8 4.6 7.3 7.8 1.6 3.3 2.4 7 2.4 11 0 6.6-1.8 11.8-5.5 15.9-3.6 4-9.1 6-16.5 6Zm.2-13c2.8 0 4.9-.9 6.3-2.5 1.3-1.6 2-3.7 2-6.4 0-2.5-.7-4.5-2-6.2-1.4-1.6-3.5-2.4-6.3-2.4-2.7 0-4.8.8-6 2.4a9.6 9.6 0 0 0-2 6.2c0 2.7.7 4.8 2 6.4 1.2 1.6 3.3 2.4 6 2.4Zm41.6-46.4a1102 1102 0 0 1-.4 23.1c-.9 7.3-1.4 13.5-1.6 19H57.3c-.2-5.5-.7-11.7-1.6-19v-3.3c-.3-7.9-.4-14.5-.4-19.8h15.9Zm-.6 61.5H55.8v-13.7h14.8v13.7Zm33.2-1c-9.6 0-16.7-2.4-21.3-7.3a30 30 0 0 1-6.8-21c0-9.2 2.2-16.5 6.8-21.8 4.6-5.3 11.7-8 21.3-8 13.5 0 22.5 5.6 27 16.7-3.8 1.6-8.3 4-13.4 7.1-1.3-2.8-3.2-5-6-6.3a17.1 17.1 0 0 0-8-2.1c-4.1 0-7.2 1.3-9.2 3.9a15 15 0 0 0-3 9.5c0 4.1 1 7.5 3.2 10 2.2 2.6 5.5 3.9 10 3.9a15 15 0 0 0 8.4-2.1c2-1.4 3.6-3.7 4.6-6.7 3.5 2.2 8 4.8 13.4 7.6a21.5 21.5 0 0 1-10.7 13c-5 2.4-10.4 3.7-16.3 3.7Zm69.7-28.5c9.8 0 14.6 3.7 14.6 11.1 0 3.5-.6 6.5-2 9a13.2 13.2 0 0 1-7 5.6c-3.5 1.4-8.2 2-14.3 2H136a817 817 0 0 0 0-55.8h15v.2h13.7c5.3 0 9.5.5 12.5 1.6 3 1 5.2 2.5 6.4 4.5 1.3 2 2 4.5 2 7.6 0 3.1-1 6-2.8 8.4a18.3 18.3 0 0 1-9.3 5.8Zm-22.4-14v7.2h12.3c2.6 0 4.4-.3 5.5-.8 1-.6 1.6-1.7 1.6-3.2 0-1.1-.6-2-1.7-2.4-1-.5-2.9-.8-5.4-.8H151Zm12.3 27.7c2.2 0 3.9-.1 5-.3 1.2-.3 2-.7 2.6-1.3.5-.6.7-1.4.7-2.4a3 3 0 0 0-1.8-2.9c-1.2-.6-3.4-.9-6.5-.9H151v7.8h12.3Zm29.8 7.5a75 75 0 0 0 6.4-15.1 40.7 40.7 0 0 0 21.8 6.7c3.5 0 6-.5 7.5-1.2 1.4-.7 2.1-1.5 2.1-2.4 0-3.1-4-4.7-11.9-4.7-8.7 0-15-1-19-3.2-3.8-2.2-5.8-5.7-5.8-10.6 0-7 2.4-12 7.2-15.3 4.8-3.3 11-5 18.6-5a50.2 50.2 0 0 1 26.3 7.6 170 170 0 0 0-4.5 14.7 38.8 38.8 0 0 0-21.5-7.4c-4.1 0-6.8.4-8.2 1-1.4.7-2.2 1.6-2.2 2.9 0 1.2 1 2.2 3 3 1.9.7 4.7 1 8.4 1 9 0 15.6 1.3 19.7 3.8 4 2.4 6.1 6.2 6.1 11.4 0 7.1-2.1 12.3-6.5 15.4-4.3 3.2-11 4.8-19.8 4.8a59 59 0 0 1-14.4-1.9 48 48 0 0 1-13.3-5.5Z"/></svg>
